src/main/resources/icons/CFMLIcons/icons/remote_access.svg

<svg xmlns="http://www.w3.org/2000/svg" width="16" height="16" viewBox="0 0 16 16"><rect id="frame" width="16" height="16" fill="none"/><path fill="#9AA7B0" fill-rule="evenodd" d="M8 4C5.792 4 4 5.792 4 8s1.792 4 4 4 4-1.792 4-4-1.792-4-4-4zm-.4 7.172A3.195 3.195 0 0 1 4.8 8c0-.248.032-.484.084-.716L6.8 9.2v.4c0 .44.36.8.8.8v.772zm2.76-1.016A.794.794 0 0 0 9.6 9.6h-.4V8.4c0-.22-.18-.4-.4-.4H6.4v-.8h.8c.22 0 .4-.18.4-.4V6h.8c.44 0 .8-.36.8-.8v-.164c1.172.476 2 1.624 2 2.964 0 .832-.32 1.588-.84 2.156z"/></svg>

<svg xmlns="http://www.w3.org/2000/svg" width="16" height="16" viewBox="0 0 16 16">
  <path fill="#9AA7B0" fill-rule="evenodd" d="M8,4 C5.792,4 4,5.792 4,8 C4,10.208 5.792,12 8,12 C10.208,12 12,10.208 12,8 C12,5.792 10.208,4 8,4 Z M7.6,11.172 C6.02,10.976 4.8,9.632 4.8,8 C4.8,7.752 4.832,7.516 4.884,7.284 L6.8,9.2 L6.8,9.6 C6.8,10.04 7.16,10.4 7.6,10.4 L7.6,11.172 Z M10.36,10.156 C10.256,9.832 9.96,9.6 9.6,9.6 L9.2,9.6 L9.2,8.4 C9.2,8.18 9.02,8 8.8,8 L6.4,8 L6.4,7.2 L7.2,7.2 C7.42,7.2 7.6,7.02 7.6,6.8 L7.6,6 L8.4,6 C8.84,6 9.2,5.64 9.2,5.2 L9.2,5.036 C10.372,5.512 11.2,6.66 11.2,8 C11.2,8.832 10.88,9.588 10.36,10.156 Z"/>
</svg>
